X: 40
T:Tommy's Tarbukas
M:4/4
L:1/8
R:Reel
C:Alasdair Fraser
K:Gm
"Gm"d2 cd BGGB|"F"AFcF dFcF|"Gm"d2 cd BGGB|"F"AFcA "Gm"BGBc|"Gm"d2 cd BG
GB|
"F"AFcF dFcF|"Gm"d2 Bd "F"AFFA|"D"Ggdc "Gm"BG G2:|
|:"Gm"DGBD "Cm"EGCB|"F"Acfe "Bb"dbfd|"Gm"DGBD "Cm"EGCB|"Dm"AfcA "Gm"BG G
2|
"Gm"DGBD "Cm"EGCB|"F"Acfe "Bb"dbfd|"Bb"fdBe "F"cAFE|"D"DG#FA "Gm"BG G2:|
